icon-themes/breeze_svg/reportdesign/res/sx12453.svg

<svg viewBox="0 0 16 16" xmlns="http://www.w3.org/2000/svg"><path d="m3 13v1h10v-1z" fill="#1d99f3"/><path d="m3 4v1h10v-1zm0 3v1h10v-1zm0 3v1h10v-1z" fill="#4d4d4d"/></svg>

<svg xmlns="http://www.w3.org/2000/svg" viewBox="0 0 16 16">
 <path 
     style="fill:#1d99f3" 
     d="M 3 13 L 3 14 L 13 14 L 13 13 L 3 13 z "
     />
 <path 
     style="fill:#4d4d4d" 
     d="M 3 4 L 3 5 L 13 5 L 13 4 L 3 4 z M 3 7 L 3 8 L 13 8 L 13 7 L 3 7 z M 3 10 L 3 11 L 13 11 L 13 10 L 3 10 z "
     />
</svg>
